X: 1
T: Britches, The
M: 4/4
L: 1/8
R: reel
K: Gmaj
D|:GABG AGBA|GABG AGED|GABc dedB|GAGE ED D2:|
|dedB AGAB|dedB AG E2|dedB AGAB|GAGE ED D2|
|dedB AGAB|dedB AG E2|dege deBA|GAGE ED D2|
|:gabg agba|gabg ag e2|gbeg deBA|GAGE ED D2:|
|edBd edBd|edBG AG E2|edBd edBA|GAGE ED D2|
|edBd edBd|edBG AG E2|gbeg deBA|GAGE ED D2|
